src/assets/icon/minus.svg

<svg width="100" height="100" viewBox="0 0 100 100" fill="none" xmlns="http://www.w3.org/2000/svg">
<g id="minus" clip-path="url(#clip0_3132_3268)">
<g id="Group 332">
<rect id="Rectangle 414" x="7" y="93" width="86" height="86" rx="43" transform="rotate(-90 7 93)" fill="url(#paint0_linear_3132_3268)"/>
<path id="Rectangle 416 (Stroke)" fill-rule="evenodd" clip-rule="evenodd" d="M50 97.5C76.2335 97.5 97.5 76.2335 97.5 50C97.5 23.7665 76.2335 2.5 50 2.5C23.7665 2.5 2.5 23.7665 2.5 50C2.5 76.2335 23.7665 97.5 50 97.5ZM-1.09278e-06 50C-4.89256e-07 77.6142 22.3858 100 50 100C77.6142 100 100 77.6142 100 50C100 22.3858 77.6142 -1.69631e-06 50 -1.09278e-06C22.3858 -4.89256e-07 -1.69631e-06 22.3858 -1.09278e-06 50Z" fill="url(#paint1_linear_3132_3268)"/>
<path id="Union" fill-rule="evenodd" clip-rule="evenodd" d="M65.25 43H33.75C30.0221 43 27 46.134 27 50C27 53.866 30.0221 57 33.75 57H65.25C68.9779 57 72 53.866 72 50C72 46.134 68.9779 43 65.25 43Z" fill="#F5F1EE"/>
</g>
</g>
<defs>
<linearGradient id="paint0_linear_3132_3268" x1="111.856" y1="126.36" x2="4.12655" y2="127.459" gradientUnits="userSpaceOnUse">
<stop stop-color="#AB750F"/>
<stop offset="0.237787" stop-color="#D8A956"/>
<stop offset="1" stop-color="#AB750F"/>
</linearGradient>
<linearGradient id="paint1_linear_3132_3268" x1="50.0004" y1="104.675" x2="50.0004" y2="-1.82926" gradientUnits="userSpaceOnUse">
<stop stop-color="#AB750F"/>
<stop offset="0.516" stop-color="#D8A956"/>
<stop offset="1" stop-color="#AB750F"/>
</linearGradient>
<clipPath id="clip0_3132_3268">
<rect width="100" height="100" fill="white"/>
</clipPath>
</defs>
</svg>

<svg xmlns="http://www.w3.org/2000/svg" width="100" height="100" fill="none" xmlns:v="https://vecta.io/nano"><g clip-path="url(#C)"><rect x="7" y="93" width="86" height="86" rx="43" transform="rotate(270 7 93)" fill="url(#A)"/><g fill-rule="evenodd"><path d="M50 97.5c26.234 0 47.5-21.266 47.5-47.5S76.234 2.5 50 2.5 2.5 23.767 2.5 50 23.767 97.5 50 97.5zM0 50c0 27.614 22.386 50 50 50s50-22.386 50-50S77.614 0 50 0 0 22.386 0 50z" fill="url(#B)"/><path d="M65.25 43h-31.5C30.022 43 27 46.134 27 50s3.022 7 6.75 7h31.5c3.728 0 6.75-3.134 6.75-7s-3.022-7-6.75-7z" fill="#f5f1ee"/></g></g><defs><linearGradient id="A" x1="111.856" y1="126.36" x2="4.127" y2="127.459" gradientUnits="userSpaceOnUse"><stop stop-color="#ab750f"/><stop offset=".238" stop-color="#d8a956"/><stop offset="1" stop-color="#ab750f"/></linearGradient><linearGradient id="B" x1="50" y1="104.675" x2="50" y2="-1.829" gradientUnits="userSpaceOnUse"><stop stop-color="#ab750f"/><stop offset=".516" stop-color="#d8a956"/><stop offset="1" stop-color="#ab750f"/></linearGradient><clipPath id="C"><path fill="#fff" d="M0 0h100v100H0z"/></clipPath></defs></svg>
